src/distro-icons/xubuntu.svg

<svg width="512" height="512" fill="none" xmlns="http://www.w3.org/2000/svg">
<circle cx="256" cy="256" r="256" fill="#fff"/>
<g clip-path="url(#a)" fill-rule="evenodd" clip-rule="evenodd">
<path d="M329.42 97.193c-7.533 7.919-21.234 90.863-17.736 107.374 2.002 9.452 9.254 9.02 12.955-.771 7.456-19.724 15.703-83.947 12.887-100.367-1.225-7.147-4.698-9.819-8.106-6.236Zm72.286 13.266c-13.061 6.016-50.433 66.144-57.842 93.061-3.49 12.682 1.356 21.322 9.088 16.201 12.309-8.154 59.609-98.742 56.03-107.308-1.145-2.739-3.941-3.49-7.276-1.954Zm-198.773 10.986c-24.608 5.278-28.652 27.822-14.115 78.707 2.798 9.797 2.652 10.42-2.437 10.39-6.372-.037-6.92-.768-13.581-18.116-16.343-42.569-35.016-57.085-52.054-40.466-12.527 12.222-13.589 32.512-3.445 65.854l1.687 5.546-4.054 11.946c-12.281 36.186-16.35 55.519-17.64 83.762-4.575 100.241 67.894 123.959 197.106 64.508 88.465-40.702 123.978-69.272 118.008-94.936-6.252-26.879-29.347-44.823-79.608-61.856-32.109-10.881-57.345-16.069-87.319-17.949l-4.759-.3-.242-5.6c-.133-3.081-.346-10.67-.472-16.864-.995-48.476-13.197-69.746-37.075-64.626Z" fill="#FBFBFB"/>
<path d="M239.574.29C96.755 9.488-10.922 134.067.648 276.718 11.98 416.46 133.48 521.092 273.389 511.595c142.463-9.67 249.509-133.967 237.963-276.312C500.054 95.977 379.005-8.687 239.574.291Zm94.483 95.912c4.939 2.554 5.226 21.425.859 56.43-5.84 46.801-13.293 66.462-21.385 56.415-4.923-6.111-1.938-40.945 7.149-83.393 5.46-25.514 8.414-32.018 13.377-29.452Zm73.359 14.147c4.236 2.967.068 14.771-17.682 50.077-25.961 51.639-39.507 68.594-45.897 57.444-5.084-8.87 7.55-39.534 30.961-75.15 16.854-25.641 27.352-36.06 32.618-32.371Zm-192.347 11.078c16.442 4.83 24.119 24.731 24.939 64.644.126 6.194.339 13.783.472 16.864l.242 5.6 4.759.3c29.974 1.88 55.21 7.068 87.319 17.949 50.26 17.033 73.356 34.977 79.608 61.856 5.385 23.153-21.927 47.763-90.914 81.919-55.977 27.713-86.77 38.703-121.243 43.269-79.235 10.493-113.102-30.227-100.574-120.922 2.02-14.619 6.819-32.734 15.257-57.6l4.054-11.946-1.688-5.546c-12.341-40.571-7.422-65.745 14.084-72.067 13.494-3.965 28.439 12.878 41.416 46.679 6.661 17.348 7.209 18.079 13.581 18.116 5.089.03 5.235-.593 2.437-10.39-12.252-42.89-11.171-65.213 3.62-74.717 5.971-3.838 16.727-5.742 22.631-4.008Z" fill="#0444AC"/>
</g>
<defs>
<clipPath id="a">
<path fill="#fff" d="M0 0h512v512H0z"/>
</clipPath>
</defs>
</svg>

<svg width="512" height="512" viewBox="0 0 512 512" fill="none" xmlns="http://www.w3.org/2000/svg">
<circle cx="256" cy="256" r="256" fill="white"/>
<g clip-path="url(#clip0_2:547)">
<path fill-rule="evenodd" clip-rule="evenodd" d="M329.42 97.193C321.887 105.112 308.186 188.056 311.684 204.567C313.686 214.019 320.938 213.587 324.639 203.796C332.095 184.072 340.342 119.849 337.526 103.429C336.301 96.2816 332.828 93.6102 329.42 97.193ZM401.706 110.459C388.645 116.475 351.273 176.603 343.864 203.52C340.374 216.202 345.22 224.842 352.952 219.721C365.261 211.567 412.561 120.979 408.982 112.413C407.837 109.674 405.041 108.923 401.706 110.459ZM202.933 121.445C178.325 126.723 174.281 149.267 188.818 200.152C191.616 209.949 191.47 210.572 186.381 210.542C180.009 210.505 179.461 209.774 172.8 192.426C156.457 149.857 137.784 135.341 120.746 151.96C108.219 164.182 107.157 184.472 117.301 217.814L118.988 223.36L114.934 235.306C102.653 271.492 98.5831 290.825 97.2941 319.068C92.7194 419.309 165.188 443.027 294.4 383.576C382.865 342.874 418.378 314.304 412.408 288.64C406.156 261.761 383.061 243.817 332.8 226.784C300.691 215.903 275.455 210.715 245.481 208.835L240.722 208.535L240.48 202.935C240.347 199.854 240.134 192.265 240.008 186.071C239.013 137.595 226.811 116.325 202.933 121.445Z" fill="#FBFBFB"/>
<path fill-rule="evenodd" clip-rule="evenodd" d="M239.574 0.290559C96.7552 9.48736 -10.9222 134.066 0.647681 276.717C11.9808 416.46 133.48 521.092 273.389 511.595C415.852 501.925 522.898 377.628 511.352 235.283C500.054 95.977 379.005 -8.68736 239.574 0.290559ZM334.057 96.2022C338.996 98.7558 339.283 117.627 334.916 152.632C329.076 199.433 321.623 219.094 313.531 209.047C308.608 202.936 311.593 168.102 320.68 125.654C326.14 100.14 329.094 93.6358 334.057 96.2022ZM407.416 110.349C411.652 113.316 407.484 125.12 389.734 160.426C363.773 212.065 350.227 229.02 343.837 217.87C338.753 209 351.387 178.336 374.798 142.72C391.652 117.079 402.15 106.66 407.416 110.349ZM215.069 121.427C231.511 126.257 239.188 146.158 240.008 186.071C240.134 192.265 240.347 199.854 240.48 202.935L240.722 208.535L245.481 208.835C275.455 210.715 300.691 215.903 332.8 226.784C383.06 243.817 406.156 261.761 412.408 288.64C417.793 311.793 390.481 336.403 321.494 370.559C265.517 398.272 234.724 409.262 200.251 413.828C121.016 424.321 87.1488 383.601 99.6774 292.906C101.697 278.287 106.496 260.172 114.934 235.306L118.988 223.36L117.3 217.814C104.959 177.243 109.878 152.069 131.384 145.747C144.878 141.782 159.823 158.625 172.8 192.426C179.461 209.774 180.009 210.505 186.381 210.542C191.47 210.572 191.616 209.949 188.818 200.152C176.566 157.262 177.647 134.939 192.438 125.435C198.409 121.597 209.165 119.693 215.069 121.427Z" fill="#0444AC"/>
</g>
<circle cx="434.5" cy="434.5" r="77.5" fill="white"/>
<path d="M425.077 383.035L389.695 383.035C388.859 383.035 388.182 383.713 388.182 384.549C388.182 385.385 388.859 386.063 389.695 386.063L422.466 386.063C422.7 385.715 422.942 385.369 423.192 385.024L424.3 383.494L425.077 383.035Z" fill="#E91F63"/>
<path d="M414.021 402.627C413.758 403.326 413.481 404.062 413.201 404.832L375.77 404.832C374.934 404.832 374.256 404.154 374.256 403.318C374.256 402.482 374.934 401.805 375.77 401.805L414.365 401.805L414.256 402.001L414.021 402.627Z" fill="#E91F63" fill-opacity="0.7"/>
<path d="M409.981 420.271L369.715 420.271C368.879 420.271 368.201 420.949 368.201 421.785C368.201 422.621 368.879 423.299 369.715 423.299L409.566 423.299C409.574 423.255 409.583 423.211 409.591 423.168L409.6 423.123C409.788 422.168 409.911 421.53 409.988 421.029C409.983 420.775 409.98 420.523 409.981 420.271Z" fill="#E91F63" fill-opacity="0.3"/>
<path d="M411.238 439.041L368.201 439.041C367.365 439.041 366.688 439.719 366.688 440.555C366.688 441.391 367.365 442.068 368.201 442.068L413.542 442.068C413.244 441.681 412.941 441.299 412.632 440.922C412.101 440.306 411.639 439.677 411.238 439.041Z" fill="#E91F63"/>
<path d="M422.95 457.508L372.742 457.508C371.906 457.508 371.229 458.186 371.229 459.021C371.229 459.857 371.906 460.535 372.742 460.535L424.569 460.535C424.27 459.958 423.969 459.383 423.665 458.809C423.424 458.372 423.186 457.938 422.95 457.508Z" fill="#E91F63" fill-opacity="0.6"/>
<path d="M431.847 476.277L384.852 476.277C384.016 476.277 383.338 476.955 383.338 477.791C383.338 478.627 384.016 479.305 384.852 479.305L433.073 479.305C432.672 478.292 432.263 477.283 431.847 476.277Z" fill="#E91F63"/>
<path d="M448.208 374.214C447.614 376.864 443.434 373.631 442.641 376.63C437.96 373.333 442.354 380.198 441.734 380.632L441.697 380.625L441.325 380.512C441.094 380.375 440.764 380.15 440.296 379.717C436.146 381.868 434.892 387.786 430.546 390.353C427.094 395.117 425.379 400.679 422.521 405.826C420.618 410.883 418.819 415.96 419.089 421.445C418.641 425.778 416.273 431.325 419.566 435.056C424.389 440.907 427.989 447.831 431.655 454.491C437.386 465.283 442.074 476.628 445.996 488.138C446.898 485.638 446.326 493.584 447.95 494.447C448.115 490.45 448.554 484.132 449.121 479.267C449.667 466.363 445.729 453.84 445.85 440.978C445.881 440.441 445.903 439.887 445.935 439.34L446.242 437.784L446.052 437.746C446.498 431.468 447.533 424.774 452.918 420.909C458.369 417.22 465.37 417.399 471.458 415.288C472.815 414.809 474.207 414.478 475.59 414.321C475.601 414.32 475.617 414.33 475.628 414.329C479.652 413.905 483.694 414.739 487.508 416.156C487.565 416.177 487.634 416.21 487.69 416.231C488.037 416.362 488.413 416.499 488.755 416.638C491.586 417.462 497.164 419.735 498.603 417.946C495.295 413.77 489.507 412.883 484.894 410.585C484.155 410.294 483.237 409.955 482.306 409.681L477.761 407.68L476.642 407.144L476.635 407.182L460.262 400.521C460.04 400.222 459.796 399.912 459.56 399.673L475.693 404.985L475.708 404.909C476.266 405.154 476.824 405.374 477.399 405.558L477.392 405.596L488.664 410.065C490.534 411.217 492.576 412.2 494.568 412.731C497.805 413.873 501.069 419.684 502.103 420.14C502.599 414.793 497.834 411.417 493.794 409.029C489.21 405.562 481.615 404.167 482.107 397.177C481.987 396.66 481.87 396.144 481.702 395.632L480.249 392.617L480.333 392.594C478.261 388.877 474.922 385.819 471.059 384.136C467.332 381.961 463.103 379.701 458.942 378.313C456.674 382.262 456.563 374.358 452.666 375.932C449.567 375.694 449.823 376.576 447.951 374.214L448.208 374.214ZM467.532 390.906C468.634 391.093 469.845 391.541 471.024 392.225C474.151 394.046 475.857 396.929 474.846 398.663C473.835 400.396 470.466 400.314 467.34 398.485C464.214 396.657 462.497 393.83 463.51 392.084C464.142 390.997 465.698 390.595 467.532 390.906Z" fill="#E91F63"/>
<path d="M466.591 399.038C469.725 401.043 473.309 401.039 474.595 399.029C475.881 397.019 474.383 393.764 471.248 391.759C468.114 389.754 464.531 389.758 463.245 391.768C461.959 393.778 463.457 397.033 466.591 399.038Z" fill="black"/>
<path fill-rule="evenodd" clip-rule="evenodd" d="M471.284 399.026C472.422 399.025 473.049 398.636 473.32 398.214C473.59 397.791 473.68 397.058 473.204 396.025C472.737 395.01 471.793 393.904 470.433 393.034C469.073 392.164 467.673 391.77 466.555 391.771C465.418 391.773 464.79 392.161 464.52 392.584C464.25 393.006 464.16 393.739 464.636 394.772C465.103 395.787 466.047 396.893 467.407 397.763C468.767 398.633 470.167 399.027 471.284 399.026ZM474.595 399.029C473.309 401.039 469.725 401.043 466.591 399.038C463.457 397.033 461.959 393.778 463.245 391.768C464.531 389.758 468.114 389.754 471.248 391.759C474.383 393.764 475.881 397.019 474.595 399.029Z" fill="white"/>
<defs>
<clipPath id="clip0_2:547">
<rect width="512" height="512" fill="white"/>
</clipPath>
</defs>
</svg>
